X: 1647
T: Katie Maloney's Reel
B: australian traditional tunes wiki
M:C
L:1/8
R: Reel
Q: 1/4=100
K:G
V:1 
|:B>A|"G"D2B2B4|"D7"D2A2A4|"G"D2B2 BA GA|B2d2d2B>A|
"G"D2 B2B4|"D7"D2A2A4|"G"G2 AB "D7"A2D2|1"G"G4-G2:|2"G"G4G4||
|:"G"g2d2 BA GA|B2d2d4|g2d2 BA GA|"D7"B2A2A4|
"G"g2d2 BA GA|B2d2g3e|"G"d2B2"D7"A2B>A|"G"G4-G4:|
% abcbook-tune_id 6342d53a493230f8339b46a0


% abcbook-boost 0
% abcbook-tablature 
% abcbook-transpose 
% abcbook-lastupdated 1665324375912
% abcbook-soundfonts 
% abcbook-repeats 1
% NFF Book 2008

